icons/sass.svg

<?xml version="1.0" encoding="iso-8859-1"?>
<!-- Generator: Adobe Illustrator 19.0.0, SVG Export Plug-In . SVG Version: 6.00 Build 0)  -->
<svg version="1.1" id="Capa_1" xmlns="http://www.w3.org/2000/svg" xmlns:xlink="http://www.w3.org/1999/xlink" x="0px" y="0px"
	 viewBox="0 0 512 512" style="enable-background:new 0 0 512 512;" xml:space="preserve">
<path style="fill:#F2F2F2;" d="M512,256c0,7.91-0.355,15.726-1.066,23.448c-0.543,6.113-1.317,12.152-2.299,18.119
	C488.782,419.182,383.227,512,256,512c-64.805,0-123.977-24.074-169.075-63.781c-16.666-14.66-31.41-31.462-43.802-49.977
	C15.882,357.564,0,308.632,0,256C0,114.615,114.615,0,256,0S512,114.615,512,256z"/>
<path style="fill:#CD6699;" d="M446.767,284.975c-7.764,2.936-7.45,2.988-11.557-4.493c-5.245-9.529-8.035-19.55-8.276-30.448
	c-0.199-9.352,2.361-18.045,5.58-26.572c2.57-6.781-0.773-9.174-6.646-9.791c-4.274-0.439-8.683-0.397-12.967,0.042
	c-11.139,1.139-12.236,2.1-15.193,12.915c-1.755,6.416-3.156,12.884-6.071,18.975c-7.189,14.994-15.36,29.435-23.74,43.771
	c-1.505,2.581-2.748,5.36-4.869,7.565c-6.071-9.091-8.359-19.132-8.871-29.665c-0.512-10.397,2.675-20.062,6.175-29.623
	c1.181-3.218,0.199-5.214-2.581-6.604c-1.233-0.616-2.612-1.191-3.96-1.296c-7.147-0.564-14.273-0.481-21.243,1.473
	c-3.135,0.867-5.183,2.623-5.883,6.144c-1.358,6.886-3.479,13.573-6.343,20.01c-7.941,17.826-15.83,35.683-23.761,53.52
	c-6.896,15.496-13.688,31.033-21.859,45.913c-0.575,1.055-1.055,2.884-2.497,2.518c-1.463-0.366-0.951-2.163-1.014-3.396
	c-0.47-8.777,1.923-17.147,3.96-25.527c3.229-13.26,6.76-26.457,10.188-39.675c0.982-3.793-0.669-6.343-3.814-8.161
	c-4.524-2.602-9.028-2.727-13.928,0.919c0.669-5.392,0.961-10.125,0.731-14.858c-0.522-10.553-5.413-17.418-13.928-19.007
	c-6.217-1.16-12.1,0.648-17.659,3.281c-12.957,6.134-23.374,15.381-32.131,26.603c-1.024,1.306-2.058,2.508-3.542,3.312
	c-16.436,8.955-32.862,17.91-49.256,26.948c-1.797,1.003-2.957,0.721-4.253-0.669c-8.255-8.85-17.836-16.154-27.324-23.562
	c-13.26-10.365-26.979-20.187-38.421-32.684c-6.687-7.314-12.267-15.329-15.057-25.004c-4.556-15.82-1.149-30.553,6.437-44.554
	c8.976-16.562,22.288-29.351,36.968-40.741c23.312-18.077,48.88-32.434,75.828-44.251c30.177-13.218,61.482-21.734,94.824-20.449
	c13.208,0.512,26.028,2.8,37.794,9.268c8.328,4.577,13.845,11.191,15.402,20.898c1.829,11.368-0.899,21.87-5.945,31.828
	c-11.274,22.246-29.194,38.003-50.375,50.343c-17.638,10.271-36.665,16.792-56.801,20.208c-11.128,1.891-22.298,3.03-33.489,1.327
	c-12.842-1.954-24.712-6.248-33.499-16.593c-1.014-1.191-2.299-2.017-4.023-1.181c-1.766,0.857-1.63,2.424-1.463,3.929
	c0.125,1.034,0.408,2.079,0.773,3.062c2.351,6.343,6.75,11.128,11.901,15.308c13.396,10.898,29.268,14.096,45.934,14.42
	c16.311,0.324,32.371-1.745,48.264-5.548c35.85-8.568,65.881-26.154,87.803-56.289c13.103-18.014,21.4-37.867,20.668-60.583
	c-0.47-14.409-5.319-27.136-15.82-37.48c-12.487-12.278-27.982-18.453-44.607-22.162c-18.516-4.117-37.219-4.702-56.111-2.445
	c-16.436,1.964-32.496,5.329-48.128,10.71c-23.918,8.244-47.02,18.369-69.13,30.678c-22.653,12.601-44.001,27.032-62.725,45.108
	c-16.572,15.997-30.814,33.646-38.839,55.557c-3.427,9.383-5.893,19.028-3.594,29.174c2.947,13.061,9.383,24.367,17.847,34.565
	c12.8,15.444,28.505,27.606,44.701,39.225c13.009,9.341,26.624,17.847,39.121,27.888c3.542,2.842,3.521,2.842-0.648,5.026
	c-4.869,2.539-9.791,4.984-14.576,7.69C91.951,342.695,73.3,354.523,58.075,370.96c-7.492,8.098-12.581,17.189-14.952,27.282
	c12.392,18.516,27.136,35.318,43.802,49.977c28.432-2.215,50.197-17.011,66.278-41.482c7.764-11.818,11.4-25.192,12.769-39.299
	c1.202-12.434-0.063-24.472-3.72-36.342c-0.637-2.09-3.009-4.169-2.079-6.008c0.867-1.693,3.48-2.55,5.402-3.657
	c7.753-4.504,15.527-8.944,23.51-13.531c0.345,1.714-0.324,2.717-0.616,3.803c-4.577,16.792-7.764,33.719-4.284,51.169
	c2.163,10.867,5.768,21.096,12.622,30.093c7.053,9.258,22.8,8.202,29.194-0.251c6.071-8.025,10.094-17.074,14.284-26.081
	c2.299-4.932,4.409-9.947,6.604-14.932c-0.408,5.998-0.387,11.849-0.167,17.68c0.219,5.747,1.139,11.421,4.127,16.499
	c3.594,6.102,10.355,7.879,16.635,4.618c6.625-3.438,11.139-9.101,14.649-15.245c15.057-26.425,29.027-53.415,40.594-81.596
	c2.466-5.987,4.995-11.964,7.785-18.62c0.428,2.184,0.711,3.521,0.972,4.859c2.57,13.427,7.147,26.133,13.772,38.076
	c1.421,2.56,1.264,4.326-0.533,6.781c-6.102,8.307-12.79,16.123-19.383,24.022c-5.538,6.646-11.463,12.999-16.144,20.313
	c-4.2,6.583-1.787,13.322,5.204,14.817c2.152,0.46,4.42,0.596,6.625,0.564c12.215-0.146,23.489-3.793,33.991-9.77
	c14.137-8.056,22.518-19.864,22.131-36.676c-0.178-7.649-2.247-14.994-5.329-22.006c-0.679-1.557-0.711-2.685,0.303-4.148
	c9.791-14.023,18.442-28.724,26.394-43.854c1.411-2.664,2.403-5.622,4.681-8.223c0.303,1.055,0.543,1.714,0.679,2.393
	c2.529,12.539,5.935,24.795,12.33,35.986c1.755,3.062,0.878,4.618-1.546,6.666c-8.349,7.095-15.391,15.37-20.919,24.848
	c-4.305,7.377-7.252,15.255-7.22,23.897c0.031,9.613,7.387,15.276,16.76,13.019c9.77-2.341,18.829-6.322,26.958-12.267
	c17.711-12.967,22.904-26.645,17.356-45.735c-2.173-7.513-2.132-7.387,5.402-9.665c16.478-4.974,33.196-5.183,49.998-2.445
	c1.902,0.313,3.783,0.669,5.642,1.076c0.982-5.966,1.755-12.006,2.299-18.119C489.441,274.192,467.978,276.919,446.767,284.975z
	 M98.586,419.401c-4.775,1.693-9.738,2.414-14.817,2.017c-6.322-0.502-10.334-4.963-10.742-11.672
	c-0.46-7.732,1.829-14.712,5.214-21.504c6.154-12.33,16.488-20.699,27.032-28.912c10.25-7.993,21.264-14.817,32.402-21.452
	c3.375-2.006,3.427-1.985,4.2,2.038c1.003,5.162,1.902,10.334,1.567,15.026C144.321,383.08,123.883,410.446,98.586,419.401z
	 M251.956,277.514c-1.776,11.86-5.653,23.155-9.78,34.314c-5.622,15.235-11.097,30.542-18.171,45.192
	c-1.62,3.375-3.323,6.729-5.945,9.477c-2.476,2.602-4.671,2.299-6.384-0.878c-3.344-6.207-2.926-13.113-3.469-18.129
	c0.157-25.161,8.6-45.725,22.507-64.209c3.887-5.151,8.85-9.341,15.423-11.024C250.598,271.12,252.656,272.917,251.956,277.514z
	 M349.341,352.005c-4.765,8.234-11.63,14.221-20.052,18.484c-0.899,0.449-2.058,1.243-2.873,0.188
	c-0.773-0.993,0.47-1.651,1.034-2.278c8.37-9.143,16.635-18.359,24.085-28.275c0.115-0.157,0.397-0.178,1.034-0.449
	C352.496,344.263,351.493,348.296,349.341,352.005z M407.134,351.65c-1.243,0.585-2.685,1.682-3.897,0.742
	c-1.337-1.034-0.805-2.863-0.397-4.263c1.902-6.384,4.462-12.497,7.993-18.192c2.967-4.796,6.646-8.986,10.689-12.894
	c1.63-1.567,2.361-1.379,2.915,0.878c0.575,2.309,0.627,4.618,0.669,6.969C425.002,337.753,418.471,346.311,407.134,351.65z"/>
<g>
</g>
<g>
</g>
<g>
</g>
<g>
</g>
<g>
</g>
<g>
</g>
<g>
</g>
<g>
</g>
<g>
</g>
<g>
</g>
<g>
</g>
<g>
</g>
<g>
</g>
<g>
</g>
<g>
</g>
</svg>

<svg width="512" height="512" viewBox="0 0 512 512" fill="none" xmlns="http://www.w3.org/2000/svg">
<path d="M446.767 284.975C439.003 287.911 439.317 287.963 435.21 280.482C429.965 270.953 427.175 260.932 426.934 250.034C426.735 240.682 429.295 231.989 432.514 223.462C435.084 216.681 431.741 214.288 425.868 213.671C421.594 213.232 417.185 213.274 412.901 213.713C401.762 214.852 400.665 215.813 397.708 226.628C395.953 233.044 394.552 239.512 391.637 245.603C384.448 260.597 376.277 275.038 367.897 289.374C366.392 291.955 365.149 294.734 363.028 296.939C356.957 287.848 354.669 277.807 354.157 267.274C353.645 256.877 356.832 247.212 360.332 237.651C361.513 234.433 360.531 232.437 357.751 231.047C356.518 230.431 355.139 229.856 353.791 229.751C346.644 229.187 339.518 229.27 332.548 231.224C329.413 232.091 327.365 233.847 326.665 237.368C325.307 244.254 323.186 250.941 320.322 257.378C312.381 275.204 304.492 293.061 296.561 310.898C289.665 326.394 282.873 341.931 274.702 356.811C274.127 357.866 273.647 359.695 272.205 359.329C270.742 358.963 271.254 357.166 271.191 355.933C270.721 347.156 273.114 338.786 275.151 330.406C278.38 317.146 281.911 303.949 285.339 290.731C286.321 286.938 284.67 284.388 281.525 282.57C277.001 279.968 272.497 279.843 267.597 283.489C268.266 278.097 268.558 273.364 268.328 268.631C267.806 258.078 262.915 251.213 254.4 249.624C248.183 248.464 242.3 250.272 236.741 252.905C223.784 259.039 213.367 268.286 204.61 279.508C203.586 280.814 202.552 282.016 201.068 282.82C184.632 291.775 168.206 300.73 151.812 309.768C150.015 310.771 148.855 310.489 147.559 309.099C139.304 300.249 129.723 292.945 120.235 285.537C106.975 275.172 93.256 265.35 81.814 252.853C75.127 245.539 69.547 237.524 66.757 227.849C62.201 212.029 65.608 197.296 73.194 183.295C82.17 166.733 95.482 153.944 110.162 142.554C133.474 124.477 159.042 110.12 185.99 98.303C216.167 85.085 247.472 76.5689 280.814 77.8539C294.022 78.3659 306.842 80.654 318.608 87.122C326.936 91.699 332.453 98.3129 334.01 108.02C335.839 119.388 333.111 129.89 328.065 139.848C316.791 162.094 298.871 177.851 277.69 190.191C260.052 200.462 241.025 206.983 220.889 210.399C209.761 212.29 198.591 213.429 187.4 211.726C174.558 209.772 162.688 205.478 153.901 195.133C152.887 193.942 151.602 193.116 149.878 193.952C148.112 194.809 148.248 196.376 148.415 197.881C148.54 198.915 148.823 199.96 149.188 200.943C151.539 207.286 155.938 212.071 161.089 216.251C174.485 227.149 190.357 230.347 207.023 230.671C223.334 230.995 239.394 228.926 255.287 225.123C291.137 216.555 321.168 198.969 343.09 168.834C356.193 150.82 364.49 130.967 363.758 108.251C363.288 93.8419 358.439 81.115 347.938 70.771C335.451 58.493 319.956 52.318 303.331 48.609C284.815 44.492 266.112 43.907 247.22 46.164C230.784 48.128 214.724 51.4929 199.092 56.874C175.174 65.118 152.072 75.243 129.962 87.552C107.309 100.153 85.961 114.584 67.237 132.66C50.665 148.657 36.423 166.306 28.398 188.217C24.971 197.6 22.505 207.245 24.804 217.391C27.751 230.452 34.187 241.758 42.651 251.956C55.451 267.4 71.156 279.562 87.352 291.181C100.361 300.522 113.976 309.028 126.473 319.069C130.015 321.911 129.994 321.911 125.825 324.095C120.956 326.634 116.034 329.079 111.249 331.785C91.951 342.695 73.3 354.523 58.075 370.96C50.583 379.058 45.494 388.149 43.123 398.242C55.515 416.758 70.259 433.56 86.925 448.219C115.357 446.004 137.122 431.208 153.203 406.737C160.967 394.919 164.603 381.545 165.972 367.438C167.174 355.004 165.909 342.966 162.252 331.096C161.615 329.006 159.243 326.927 160.173 325.088C161.04 323.395 163.653 322.538 165.575 321.431C173.328 316.927 181.102 312.487 189.085 307.9C189.43 309.614 188.761 310.617 188.469 311.703C183.892 328.495 180.705 345.422 184.185 362.872C186.348 373.739 189.953 383.968 196.807 392.965C203.86 402.223 219.607 401.167 226.001 392.714C232.072 384.689 236.095 375.64 240.285 366.633C242.584 361.701 244.694 356.686 246.889 351.701C246.481 357.699 246.502 363.55 246.722 369.381C246.941 375.128 247.861 380.802 250.849 385.88C254.443 391.982 261.204 393.759 267.484 390.498C274.109 387.06 278.623 381.397 282.133 375.253C297.19 348.828 311.16 321.838 322.727 293.657C325.193 287.67 327.722 281.693 330.512 275.037C330.94 277.221 331.223 278.558 331.484 279.896C334.054 293.323 338.631 306.029 345.256 317.972C346.677 320.532 346.52 322.298 344.723 324.753C338.621 333.06 331.933 340.876 325.34 348.775C319.802 355.421 313.877 361.774 309.196 369.088C304.996 375.671 307.409 382.41 314.4 383.905C316.552 384.365 318.82 384.501 321.025 384.469C333.24 384.323 344.514 380.676 355.016 374.699C369.153 366.643 377.534 354.835 377.147 338.023C376.969 330.374 374.9 323.029 371.818 316.017C371.139 314.46 371.107 313.332 372.121 311.869C381.912 297.846 390.563 283.145 398.515 268.015C399.926 265.351 400.918 262.393 403.196 259.792C403.499 260.847 403.739 261.506 403.875 262.185C406.404 274.724 409.81 286.98 416.205 298.171C417.96 301.233 417.083 302.789 414.659 304.837C406.31 311.932 399.268 320.207 393.74 329.685C389.435 337.062 386.488 344.94 386.52 353.582C386.551 363.195 393.907 368.858 403.28 366.601C413.05 364.26 422.109 360.279 430.238 354.334C447.949 341.367 453.142 327.689 447.594 308.599C445.421 301.086 445.462 301.212 452.996 298.934C469.474 293.96 486.192 293.751 502.994 296.489C504.896 296.802 506.777 297.158 508.636 297.565C509.618 291.599 510.391 285.559 510.935 279.446C489.441 274.192 467.978 276.919 446.767 284.975ZM98.586 419.401C93.811 421.094 88.848 421.815 83.769 421.418C77.447 420.916 73.435 416.455 73.027 409.746C72.567 402.014 74.856 395.034 78.241 388.242C84.395 375.912 94.729 367.543 105.273 359.33C115.523 351.337 126.537 344.513 137.675 337.878C141.05 335.872 141.102 335.893 141.875 339.916C142.878 345.078 143.777 350.25 143.442 354.942C144.321 383.08 123.883 410.446 98.586 419.401ZM251.956 277.514C250.18 289.374 246.303 300.669 242.176 311.828C236.554 327.063 231.079 342.37 224.005 357.02C222.385 360.395 220.682 363.749 218.06 366.497C215.584 369.099 213.389 368.796 211.676 365.619C208.332 359.412 208.75 352.506 208.207 347.49C208.364 322.329 216.807 301.765 230.714 283.281C234.601 278.13 239.564 273.94 246.137 272.257C250.598 271.12 252.656 272.917 251.956 277.514ZM349.341 352.005C344.576 360.239 337.711 366.226 329.289 370.489C328.39 370.938 327.231 371.732 326.416 370.677C325.643 369.684 326.886 369.026 327.45 368.399C335.82 359.256 344.085 350.04 351.535 340.124C351.65 339.967 351.932 339.946 352.569 339.675C352.496 344.263 351.493 348.296 349.341 352.005ZM407.134 351.65C405.891 352.235 404.449 353.332 403.237 352.392C401.9 351.358 402.432 349.529 402.84 348.129C404.742 341.745 407.302 335.632 410.833 329.937C413.8 325.141 417.479 320.951 421.522 317.043C423.152 315.476 423.883 315.664 424.437 317.921C425.012 320.23 425.064 322.539 425.106 324.89C425.002 337.753 418.471 346.311 407.134 351.65Z" fill="#FF4A57"/>
</svg>
